X:17
T: Rózsa, rózsa, piros rózsa, kihajlott az útra
M:4/4
L:1/4
K:D
A/B/A/G/ F/D/E/F/ | | GA B<G| D2 D z|
dd=cB | =cBAG | A2 A z |
dd=cB | =c B A/G/A/B/ | A2 D z |
A/B/A/G/ F/D/E/F/ | G A B<G | D2 D z |

